public/icon/icon-logo.svg

<svg width="140" height="36" viewBox="0 0 140 36" fill="none" xmlns="http://www.w3.org/2000/svg">
<path fill-rule="evenodd" clip-rule="evenodd" d="M63.7048 12.3535V10.7421H66.6716C67.4629 10.7421 67.752 11.0547 67.752 11.5513C67.752 12.1165 67.4629 12.3526 66.6716 12.3526H63.7048V12.3535ZM63.7048 7.07308H66.2891C67.0402 7.07308 67.2507 7.31357 67.2507 7.80845C67.2507 8.28683 67.0402 8.54121 66.2891 8.54121H63.7048V7.07308ZM72.7101 11.968C72.7101 10.8854 71.8795 9.89648 70.5467 9.55267C71.2638 9.31218 72.1101 8.30246 72.1101 7.38911C72.1101 5.51725 70.9939 4.61953 68.0603 4.61953H58.8611V14.9225H67.2498C70.8585 14.9217 72.7101 14.425 72.7101 11.968ZM49.855 24.1177L47.807 18.76H41.3677V29.0673H46.2087V25.1951L45.5886 21.1467L48.4847 29.0673H51.2236L54.1144 21.1467L53.4978 25.1951V29.0673H58.3424V18.76H51.9004L49.855 24.1177ZM127.038 18.76V22.0262H131.091V29.0673H135.951V22.0262H140V18.76H127.038ZM67.2716 26.757C66.1328 26.757 65.4961 26.3742 65.4961 25.7274C65.4961 25.0866 66.0576 24.906 67.3476 24.794C68.6419 24.6864 69.7799 24.722 70.7616 24.2627C70.7782 24.3547 70.7782 24.4303 70.7782 24.5223C70.7782 25.8394 69.4507 26.757 67.2716 26.757ZM75.6393 23.4926C75.6393 21.6754 75.3869 20.5225 74.1563 19.6039C73.1511 18.8729 71.2262 18.4865 68.3511 18.4865C63.4707 18.4865 61.1188 19.3295 60.9066 21.9698H65.9022C66.0376 21.1641 66.828 20.9427 68.3895 20.9427C69.8 20.9427 70.5467 21.3438 70.5467 21.8803C70.5467 22.7225 68.9677 22.502 65.5729 22.7225C63.2376 22.8701 61.5825 22.9769 60.5773 24.1681C60.2122 24.6082 59.9991 25.249 59.9991 26.0191C59.9991 28.2755 61.7738 29.3973 65.324 29.3973C67.7729 29.3973 69.4681 28.9571 70.7782 27.6513C70.7991 28.1679 70.8969 28.6437 71.0891 29.0665H76.1205V28.839C75.7345 28.5681 75.6393 28.1479 75.6393 27.469V23.4926ZM85.5136 26.1875C84.0463 26.1875 83.0271 25.3115 83.0271 23.9119C83.0271 22.5028 84.0463 21.6207 85.5136 21.6207C86.9983 21.6207 88.0009 22.5028 88.0009 23.9119C88 25.3115 86.9983 26.1875 85.5136 26.1875ZM87.1319 18.4865C85.4157 18.4865 84.0088 18.8928 82.8315 19.7333L82.7939 18.7435H78.1834V32.4039H83.0262V28.2217C84.221 28.9736 85.5127 29.3217 87.055 29.3217C90.7572 29.3217 93.0926 27.1938 93.0926 23.9111C93.0926 20.6301 90.7572 18.4865 87.1319 18.4865ZM109.817 18.8156H103.359L99.807 22.0974V18.8156H94.9625V29.0821H99.807V26.757L101.947 25.0866L104.531 29.0665H110.318L105.554 22.3691L109.817 18.8156ZM115.644 22.7789C115.893 21.6051 116.971 20.9809 118.687 20.9809C120.29 20.9809 121.274 21.6381 121.408 22.7789H115.644ZM118.418 18.4153C113.425 18.4153 110.702 20.4669 110.702 23.9119C110.702 27.3578 113.425 29.4138 118.418 29.4138C122.915 29.4138 125.574 28.1887 126.286 25.9322H121.025C120.693 26.441 119.902 26.7379 118.707 26.7379C116.892 26.7379 115.892 26.0764 115.892 24.979H126.385C126.386 20.7959 123.667 18.4153 118.418 18.4153ZM82.0821 7.4794C83.566 7.4794 84.5686 8.35802 84.5686 9.76799C84.5686 11.1615 83.5651 12.0436 82.0821 12.0436C80.6157 12.0436 79.5904 11.1615 79.5904 9.76799C79.5904 8.35802 80.6149 7.4794 82.0821 7.4794ZM79.5904 14.0795C80.7869 14.8288 82.0821 15.1813 83.6236 15.1813C87.3267 15.1813 89.662 13.0498 89.662 9.76799C89.662 6.49051 87.3267 4.34344 83.7005 4.34344C81.9843 4.34344 80.5756 4.74715 79.4009 5.58671L79.3616 4.59869H74.752V18.3207H79.5895V14.0795H79.5904ZM49.3537 6.83519C50.9537 6.83519 51.938 7.49676 52.0734 8.63498H46.3057C46.5546 7.4603 47.6341 6.83519 49.3537 6.83519ZM49.0847 15.2698C53.5773 15.2698 56.2384 14.0404 56.9511 11.7883H51.6856C51.3563 12.3023 50.5668 12.5931 49.3703 12.5931C47.5589 12.5931 46.5537 11.9316 46.5537 10.8307H57.0498C57.0498 6.65547 54.3284 4.27051 49.0838 4.27051C44.0882 4.27051 41.3677 6.32295 41.3677 9.76799C41.3685 13.2174 44.0891 15.2698 49.0847 15.2698ZM98.4559 7.4412C99.959 7.4412 100.964 8.33805 100.964 9.76886C100.964 11.2005 99.959 12.0974 98.4559 12.0974C96.9502 12.0974 95.9511 11.2005 95.9511 9.76886C95.9511 8.33805 96.9502 7.4412 98.4559 7.4412ZM98.4734 15.2698C103.411 15.2698 106.094 13.2182 106.094 9.76886C106.094 6.32382 103.411 4.27138 98.4734 4.27138C93.5363 4.27138 90.8376 6.32382 90.8376 9.76886C90.8376 13.2174 93.5363 15.2698 98.4734 15.2698Z" fill="#020F19"/>
<path fill-rule="evenodd" clip-rule="evenodd" d="M12.9153 6.18423H22.7292C23.4881 6.18423 24.1082 5.6008 24.1082 4.87932V1.30839C24.1082 0.584303 23.4881 0 22.7292 0H12.9153C12.1554 0 11.5371 0.584303 11.5371 1.30839V4.87932C11.5362 5.6008 12.1554 6.18423 12.9153 6.18423Z" fill="#ABB910"/>
<path fill-rule="evenodd" clip-rule="evenodd" d="M20.0358 13.8781V17.4464C20.0358 18.1705 20.655 18.7583 21.4139 18.7583H31.8392C32.6017 18.7583 33.2157 18.1705 33.2157 17.4464V13.8781C33.2157 13.1531 32.6017 12.5723 31.8392 12.5723H21.4139C20.655 12.5714 20.0358 13.1522 20.0358 13.8781Z" fill="#ABB910"/>
<path fill-rule="evenodd" clip-rule="evenodd" d="M3.10043 28.4261H10.8786C11.641 28.4261 12.2576 27.8418 12.2576 27.1177V23.5502C12.2576 22.8253 11.641 22.2393 10.8786 22.2393H3.10043C2.34148 22.2393 1.72315 22.8253 1.72315 23.5502V27.1177C1.72227 27.8427 2.34148 28.4261 3.10043 28.4261Z" fill="#ABB910"/>
<path fill-rule="evenodd" clip-rule="evenodd" d="M34.5458 19.533H20.7441C20.1196 19.533 19.6 19.1988 19.2951 18.7256H19.0192V27.5605C19.0192 28.4669 19.7903 29.2005 20.7432 29.2005H22.0707V24.7084C22.0707 23.9817 22.6908 23.3983 23.4497 23.3983H28.1755C28.9379 23.3983 29.5536 23.9817 29.5536 24.7084V29.2005H34.5449C35.4951 29.2005 36.2698 28.4669 36.2698 27.5605V18.7256H35.9912C35.6925 19.1988 35.1711 19.533 34.5458 19.533Z" fill="#ABB910"/>
<path fill-rule="evenodd" clip-rule="evenodd" d="M13.2271 29.2003H1.72227C1.09345 29.2003 0.564191 28.8626 0.262881 28.3833H0V33.3633C0 34.2697 0.772925 34.9999 1.72227 34.9999H13.2262C14.1781 34.9999 14.9511 34.2689 14.9511 33.3633V28.3833H14.6847C14.386 28.8626 13.8576 29.2003 13.2271 29.2003Z" fill="#ABB910"/>
<path fill-rule="evenodd" clip-rule="evenodd" d="M25.123 11.7949V6.15332H24.8497C24.551 6.62649 24.027 6.95814 23.399 6.95814H10.5667C9.94226 6.95814 9.42174 6.62562 9.12043 6.15332H8.84619V21.4649H15.261C16.2121 21.4649 16.9833 22.1951 16.9833 23.1024V25.3336H18.0034V13.4315C18.0034 12.5277 18.7737 11.7949 19.7239 11.7949H25.123Z" fill="#ABB910"/>
</svg>

<svg width="140" height="36" fill="none" xmlns="http://www.w3.org/2000/svg"><path fill-rule="evenodd" clip-rule="evenodd" d="M63.705 12.354v-1.612h2.967c.79 0 1.08.313 1.08.81 0 .565-.29.8-1.08.8h-2.967v.002zm0-5.28h2.584c.751 0 .962.24.962.734 0 .479-.21.733-.962.733h-2.584V7.073zm9.005 4.894c0-1.083-.83-2.072-2.163-2.415.717-.24 1.563-1.25 1.563-2.164 0-1.872-1.116-2.77-4.05-2.77h-9.199v10.303h8.389c3.609 0 5.46-.497 5.46-2.954zm-22.855 12.15l-2.048-5.358h-6.44v10.307h4.842v-3.872l-.62-4.048 2.896 7.92h2.739l2.89-7.92-.616 4.048v3.872h4.844V18.76H51.9l-2.045 5.358zm77.183-5.358v3.266h4.053v7.041h4.86v-7.04H140V18.76h-12.962zm-59.766 7.997c-1.14 0-1.776-.383-1.776-1.03 0-.64.562-.821 1.852-.933 1.294-.108 2.432-.072 3.414-.531.016.092.016.167.016.26 0 1.316-1.327 2.234-3.506 2.234zm8.367-3.264c0-1.818-.252-2.97-1.483-3.89-1.005-.73-2.93-1.117-5.805-1.117-4.88 0-7.232.843-7.444 3.484h4.995c.136-.806.926-1.027 2.487-1.027 1.411 0 2.158.4 2.158.937 0 .843-1.58.622-4.974.843-2.335.147-3.99.254-4.996 1.445-.365.44-.578 1.081-.578 1.851 0 2.257 1.775 3.378 5.325 3.378 2.449 0 4.144-.44 5.454-1.746.021.517.119.993.311 1.416h5.032v-.228c-.386-.27-.482-.691-.482-1.37v-3.976zm9.875 2.695c-1.468 0-2.487-.877-2.487-2.276 0-1.41 1.02-2.291 2.487-2.291 1.484 0 2.487.882 2.487 2.29-.001 1.4-1.003 2.276-2.487 2.276zm1.618-7.701c-1.716 0-3.123.406-4.3 1.246l-.038-.99h-4.61v13.66h4.842v-4.181c1.195.752 2.487 1.1 4.029 1.1 3.702 0 6.038-2.128 6.038-5.41s-2.336-5.425-5.961-5.425zm22.685.329h-6.458l-3.552 3.281v-3.281h-4.844v10.266h4.844v-2.325l2.14-1.67 2.584 3.98h5.787l-4.764-6.698 4.263-3.553zm5.827 3.963c.249-1.174 1.327-1.798 3.043-1.798 1.603 0 2.587.657 2.721 1.798h-5.764zm2.774-4.364c-4.993 0-7.716 2.052-7.716 5.497 0 3.446 2.723 5.502 7.716 5.502 4.497 0 7.156-1.225 7.868-3.482h-5.261c-.332.509-1.123.806-2.318.806-1.815 0-2.815-.662-2.815-1.759h10.493c.001-4.183-2.718-6.564-7.967-6.564zM82.082 7.48c1.484 0 2.487.879 2.487 2.289 0 1.393-1.004 2.276-2.487 2.276-1.466 0-2.492-.883-2.492-2.276 0-1.41 1.025-2.289 2.492-2.289zm-2.492 6.6c1.197.75 2.492 1.102 4.034 1.102 3.703 0 6.038-2.131 6.038-5.413 0-3.277-2.335-5.425-5.962-5.425-1.716 0-3.124.404-4.3 1.244l-.038-.988h-4.61v13.72h4.838v-4.242zM49.354 6.835c1.6 0 2.584.662 2.72 1.8h-5.768c.249-1.175 1.328-1.8 3.048-1.8zm-.27 8.435c4.493 0 7.154-1.23 7.867-3.482h-5.265c-.33.514-1.12.805-2.316.805-1.811 0-2.816-.661-2.816-1.762H57.05c0-4.176-2.722-6.56-7.966-6.56-4.996 0-7.716 2.052-7.716 5.497 0 3.45 2.721 5.502 7.717 5.502zm49.373-7.83c1.503 0 2.508.897 2.508 2.328 0 1.431-1.005 2.328-2.508 2.328-1.506 0-2.505-.896-2.505-2.328 0-1.43 1-2.328 2.505-2.328zm.017 7.829c4.938 0 7.621-2.052 7.621-5.501 0-3.445-2.683-5.498-7.62-5.498-4.938 0-7.636 2.053-7.636 5.498 0 3.448 2.698 5.5 7.635 5.5z" fill="#020F19"/><path fill-rule="evenodd" clip-rule="evenodd" d="M12.915 6.184h9.814c.76 0 1.38-.583 1.38-1.305V1.31c0-.725-.62-1.309-1.38-1.309h-9.814c-.76 0-1.378.584-1.378 1.308V4.88c0 .722.618 1.305 1.378 1.305zm7.121 7.694v3.568c0 .724.619 1.312 1.378 1.312h10.425c.763 0 1.377-.587 1.377-1.312v-3.568c0-.725-.614-1.306-1.377-1.306H21.414c-.759 0-1.378.58-1.378 1.306zM3.1 28.426h7.779c.762 0 1.379-.584 1.379-1.308V23.55c0-.725-.617-1.31-1.38-1.31H3.1c-.759 0-1.377.585-1.377 1.31v3.568c0 .725.618 1.308 1.377 1.308z" fill="#ABB910"/><path fill-rule="evenodd" clip-rule="evenodd" d="M34.546 19.533H20.744a1.718 1.718 0 01-1.449-.807h-.276v8.835c0 .906.771 1.64 1.724 1.64h1.328v-4.493c0-.726.62-1.31 1.379-1.31h4.726c.762 0 1.378.584 1.378 1.31v4.493h4.99c.951 0 1.726-.734 1.726-1.64v-8.835h-.279c-.298.473-.82.807-1.445.807zM13.227 29.2H1.722a1.72 1.72 0 01-1.46-.817H0v4.98C0 34.27.773 35 1.722 35h11.504c.952 0 1.725-.731 1.725-1.637v-4.98h-.266a1.71 1.71 0 01-1.458.817z" fill="#ABB910"/><path fill-rule="evenodd" clip-rule="evenodd" d="M25.123 11.795V6.153h-.273a1.706 1.706 0 01-1.451.805H10.567a1.709 1.709 0 01-1.447-.805h-.274v15.312h6.415c.951 0 1.722.73 1.722 1.637v2.232h1.02V13.432c0-.904.77-1.637 1.72-1.637h5.4z" fill="#ABB910"/></svg>
